X:144
T:Quinte estampie real, La
C:Anonyme
O:XIIIe siècle
M:6/8
K:C
c | cBc d/c/de | dcB/A/ Gz c | cBA B/A/B/c/d | c3c2c | 
    cBc d/c/de | dcB/A/ Gz c | cBA B/A/B/A/G | A3 A3 || 
e2A e2d | f/e/d/e/c/d/ c2z | g2f e2d | c/B/cd ez c | cBA B/A/B/c/d | c3c3 | 
e2A e2d | f/e/d/e/c/d/ c2z | g2f e2d | c/B/cd ez c | cBA B/A/B/A/G | A3 A3 || 
dBc d2c/B/ | c/B/cd e2z | e2a ded cz c | cBA B/A/B/c/d | c3c3 | 
dBc d2c/B/ | c/B/cd e2z | e2a ded cz c | cBA B/A/B/A/G | A3 A3 || 
G2A c2d | e2z g/f/gc | g/f/g/a/g/f/ ez c | cBA B/A/B/c/d | c3c3 | 
G2A c2d | e2z g/f/gc | g/f/g/a/g/f/ ez c | cBA B/A/B/A/G | A3 A3|]

